!!!COM: Gabriel Faure/
!!!CNT: Francais
!!!TXO: Francais
!!!OTL: "N'est-ce pas?"
!!!LYR: Verlaine
!!!OPR: La bonne chanson
!!!OPS: Op. 61
!!!ONM: No. 8
!!!ENC: Emily Thomas
!!!YOR: CD Sheet Music French Art Songs, The Ultimate Collection
!!!YOR: CD Sheet Music, LLC 2003
!!!ODT: 1894/
!!NB: Vocal melody and text encoded.
**kern	**silbe
=1	=1
*clefG2	*
*k[f#]	*
*M3/4	*
*MM[Allegretto moderato]	*
2.r	.
=2	=2
2.r	.
=3	=3
{8.g	{N'est-
16g	-ce
4a	pas?
8.g	nous
16g	i-
=4	=4
4b	-rons,
8.a	gais
16a	et
[4dd	lents,
=5	=5
4dd]}	|}
{8dd	{dans
8cc	la
8cc	voie
8b-	Mo-
=6	=6
4a	-des-
4g	-te
8g	que
8g	nous
=7	=7
4.b	montre
8a	-en
8b	sou-
8cc#	-ri-
=8	=8
[2dd	-ant
8dd]}	|}
{8a#	{l'Es-
=9	=9
4.b	-poir,
8g	Peu
8.an	sou-
16an	-ci-
=10	=10
4.b	-eux
8g	qu'on
8a	nous
8a	i-
=11	=11
4.b	-gnore
8g	ou
8a	qu'on
8a	nous
=12	=12
[2.b	voie.
=13	=13
4b_	|
8b]}	|}
8r	.
4r	.
=14	=14
2.r	.
=15	=15
2.r	.
=16	=16
4r	.
4r	.
{8e	{I-
8e	-so-
=17	=17
2gn	-le/s
8f#	dans
8f#	l'a-
=18	=18
[2.e	-mour
=19	=19
8e]}	|}
8r	.
4r	.
{4f#	{ain-
=20	=20
[2.dd#	-si
=21	=21
4.dd#]	|
8b	qu'en
8gn	un
8gn	bois
=22	=22
[2.d	noir,
=23	=23
4d]}	|}
4r	.
4r	.
=24	=24
4r	.
{4cc#	{Nos
4dd#	deux
=25	=25
[2.ee	coeurs
=26	=26
4.ee]	|
8ddn	ex-
4cc	-ha-
=27	=27
4cc-	-lant
4a-	leur
4b-	ten-
=28	=28
4.g-	-dres-
8e-	-se
4fn	pai-
=29	=29
2gn	-si-
4b-	|
=30	=30
2.b-}	-ble,}
=31	=31
2.r	.
=32	=32
2.r	.
=33	=33
4r	.
4r	.
{4b-	{Se-
=34	=34
4.cc	-ront
8cc	deux
8b-	ros-
8cc	-si-
=35	=35
[4cc#	-gnols
8cc#]}	|}
8r	.
{4cc#	{qui
=36	=36
[2.ff#	chan-
=37	=37
4ff#]	|
4ee	|
4dd	|
=38	=38
2ccn	|
[4a	-tent
=39	=39
8a]}	|}
8r	.
{4g	{dans
4fn	le
=40	=40
[2.e-	soir
=41	=41
2.e-]}	|}
=42	=42
2.r	.
=43	=43
2.r	.
=44	=44
2.r	.
=45	=45
2.r	.
=46	=46
{4dd	{Sans
8dd	nous
8cc	pre/-
8cc	-oc-
8b-	-cu-
=47	=47
4.a	-per
8a	de
8g	ce
8g	que
=48	=48
8b	nous
8b	des-
4a	-ti-
8b	-ne
8cc#	te
=49	=49
2dd}	sort,}
8r	.
{8a#	{nous
=50	=50
8b	mar-
8g	-che-
4.g	-rons
8an	pour-
=51	=51
4.b	-tant
8g	du
8a	me^-
8a	-me
=52	=52
2cc}	pas}
4r	.
=53	=53
4r	.
4r	.
{8cc	{Et
8dd	la
=54	=54
2dd	main
8dd	dans
8f#	la
=55	=55
2f#	main
8dd	a-
8dd	-vec
=56	=56
2ee	l'a^me
8ee	en-
8g#	-fan-
=57	=57
2g#	-ti-
4f#}	-ne}
=58	=58
4r	.
8r	.
{8b-	{de
8a-	ceux
8a-	qui
=59	=59
4.cc	s'ai-
8cc	-ment
8b-	sans
8b-	me/-
=60	=60
2dd	-lan-
4cc	|
=61	=61
[2bn	-ge,
8bn]}	|}
8r	.
=62	=62
2.r	.
=63	=63
2.r	.
=64	=64
4r	.
{4.d	{N'est-
8dd	-ce
=65	=65
[2.dd	pas?
=66	=66
2.dd]}	|}
==	==
*-	*-
